X:1
T:Upton Pyne, 65.65
T:Upton Pyne, 65.65
T:Frederick Alfred John Hervey, 1883
T:Public Domain Courtesy of the Cyber Hymnal™
C:Frederick Alfred John Hervey, 1883
Z:Public Domain
Z:Courtesy of the Cyber Hymnal™
%%score ( 1 2 ) ( 3 4 )
L:1/8
Q:1/4=110
M:4/4
K:D
V:1 treble 
V:2 treble 
V:3 bass 
V:4 bass 
V:1
 A2 A2 B2 [Ec]2 | d4 A4 | [B,D]2 D2 [CE]2 [DF]2 | [EG]8 | [DF]2 F2 [EG]2 [D-A]2 | [DB]4 [^DF]4 | %6
 A2 G2 F2 E2 | D8 |] %8
V:2
 D6 x2 | D8 | x2 D2 x4 | x8 | x2 F2 x4 | x8 | E4 C4 | D8 |] %8
V:3
 [D,F,]2 [F,D]2 B,2 A,2- | [F,A,]8 | [G,B,]2 [F,A,]2 [E,A,]2 [D,A,-]2 | [C,A,]8 | A,2 D2 =C4 | %5
 B,8 | [E,B,]4 A,2 G,2 | [D,F,]8 |] %8
V:4
 x4 G,4 | x8 | x8 | x8 | D,4 E,2 F,2 | G,4 B,4- | x4 A,,4 | x8 |] %8

